X:1
T:Title
%%score { ( 1 3 ) | ( 2 4 ) }
L:1/8
M:4/4
K:Ab
V:1 bass nm="Grand Piano"
V:3 bass 
V:2 treble 
V:4 treble 
V:1
 z4 z[Q:1/4=86] A,,C,D, | z[K:treble] AAA A[K:bass]F,E,D, | z[K:treble] GGG G[K:bass]C,D,E, | %3
 z[K:treble] BBB BG,[K:bass]F,E, | z[K:treble] AAA A[K:bass]A,,C,E, | %5
 z[K:treble] AAA AG,[K:bass]B,A, | z[K:treble] AAA A[K:bass]F,=E,F, | z[K:treble] BBB B2 B2 | %8
[M:5/8] BBB BB |[M:3/8] EFG |[M:4/4] A6 z2 | G6 z2 | d6 z2 | c6 z2 |[M:5/8] c-c- c3 |[M:3/8] AG_G | %16
[M:4/4] F6 z2 | c6 z2 |[M:5/8] A-A- A3 |] %19
V:2
 z8 | z [CE][CE][CE] .[CE]2 z2 | z [DE][DE][DE] .[DE]2 z2 | z [DE][DE][DE] .[DE]2 z2 | %4
 z [A,E][A,E][A,E] .[A,E]2 z2 | z [CE][CE][CE] .[CE]2 z2 | z DDD .D2 z2 | %7
 z [=DA][DA][DA] [DA]2 [CDA]2 |[M:5/8] [EG][EG][=DA] [DA][_DG] |[M:3/8] z =D_D | %10
[M:4/4] C[K:bass][A,,E,][A,,F,][A,,=D,] [A,,E,]2 E2 | E[E,B,][E,B,][E,B,] .[E,B,]2[K:treble] EG | %12
 G[K:bass][E,B,][E,B,][E,A,] [E,G,]2 [G,B,E]2 | [A,,A,][A,,A,][A,,A,][A,,A,] [A,,A,][K:treble]cdc | %14
[M:5/8][K:bass] A-A- A3 |[M:3/8] CDE |[M:4/4] D6 z2 | .[A,E]2 z2 z4 |[M:5/8] z E,F, F,E, |] %19
V:3
 x8 | E,6[K:treble][K:bass] z2 | B,,6[K:treble][K:bass] z2 | G,6[K:treble][K:bass] z2 | %4
 C,6[K:treble][K:bass] z2 | A,6[K:treble][K:bass] z2 | F,6[K:treble][K:bass] z2 | %7
 B,6[K:treble] z2 |[M:5/8] x5 |[M:3/8] x3 |[M:4/4] z CD_C =C2 e2 | z EEE EEGB | z GGF E2 e2 | %13
 EEFC Eefe |[M:5/8] z EE EE |[M:3/8] x3 |[M:4/4] z A,A,A, A,[FB][Fc][Fd] | z EFC E2 B2 | %18
[M:5/8] [A,C]CD DC |] %19
V:4
 x8 | x8 | x8 | x8 | x8 | x8 | x8 | x8 |[M:5/8] B,-B,- B,3 |[M:3/8] x3 |[M:4/4] x[K:bass] x7 | %11
 x6[K:treble] x2 | x[K:bass] x7 | x5[K:treble] x3 |[M:5/8][K:bass] z A,,A,, A,,A,, |[M:3/8] x3 | %16
[M:4/4] z D,D,D, D,[D,A,][C,A,][B,,A,] | E,-[E,-A,][E,-A,][E,-A,] [E,A,]2 [E,G,D]2 | %18
[M:5/8] A,,-A,,- A,,3 |] %19

